X:1
T:4 Songs, Op.43
T:Von ewiger Liebe
T:4 Songs, Op.43
T:1. Von ewiger Liebe
T:Johannes Brahms
T:Josef Wenzig
T:OpenScore (CC0)
T:OpenScore (CC0)
T:OpenScore (CC0)
T:OpenScore (CC0)
T:OpenScore (CC0)
T:OpenScore (CC0)
C:Johannes Brahms
Z:Josef Wenzig
Z:OpenScore (CC0)
%%score 1 { ( 2 5 ) | ( 3 4 ) }
L:1/8
Q:1/4=95
M:3/4
K:D
V:1 treble nm="Voice"
V:2 treble nm="Piano"
V:5 treble 
V:3 bass 
V:4 bass 
V:1
"^Mässig" z6 | z6 | z6 | z6 | B,2 B,2 z D | F2 F2 z d | c2 A2 B2 | F4 z2 | c2 A2 B2 | G2 E2 F2 | %10
w: ||||Dun- kel, wie|dun- kel in|Wald und in|Feld!|A- bend schon|ist es, nun|
 A3 A, E2 | D2 z2 z2 | z6 | D2 E3 =F | =F4 E2 | A2 ^G3 ^F | ^G4 ^c2 | z2 ^A2 B2 | =A2 F2 G2 | %19
w: schwei- get  die|Welt.||Nir- gend noch|Licht und|nir- gend noch|Rauch, ja,|und die|Ler- che sie|
 D2 F3 F | B,2 z2 z2 | z6 | z6 | z6 | B,3 B, D2 | F2 F2 d2 | c2 A2 B2 | F4 z2 | c2 A2 B2 | %29
w: schwei- get nun|auch.||||Kommt aus  dem|Dor- fe der|Bur- sche her-|aus,|gibt das Ge-|
 G2 E2 F2 | A3 A, E2 | D2 z2 z2 | z6 | D2 E3 =F | =F3 E E2 | A2 ^G2 F2 | ^G4 z2 | ^A2 A2!<(! B2 | %38
w: leit der Ge-|lieb- ten  nach|Haus,||führt sie am|Wei- den- ge-|bü- sche vor-|bei,|re- det so|
 =A2 F2 G2 | (D2 F3) F | F4!<)!!mf! z2 | z6 | z6 | z6 | F2 B3 B | c4 z2 | F B (cd) c B | c4 z2 | %48
w: viel und so-|man- * cher-|lei:||||„Lei- dest du|Schmach|und be- trü- * best du|dich,|
 d2 c2 B2 | A4 G2 | (F>^G) A2 ^E2 | F4 z2 | F2 B3 B | c4 F F | (FB) (cd) (cB) | c4 z2 | d2 c2 B2 | %57
w: lei- dest du|Schmach von|an- * dern um|mich,|wer- de die|Lie- be ge-|trennt * so * ge- *|schwind,|schnell wie wir|
 A3 A G2 | (F>^G) A2 ^E2 | F4 z2 |[Q:1/4=97] B2 c3 c |[Q:1/4=99] d3 c B2 | %62
w: frü- her ver-|ei- * ni- get|sind.|Schei- de mit|Re- gen und|
[Q:1/4=101] (Bd) (ce) (dc) |[Q:1/4=103] d4 z2 |[Q:1/4=105] d2 c2 B2 |[Q:1/4=107] A2 F2 e2 | %66
w: schei- * de * mit *|Wind,|schnell wie wir|frü- her ver-|
[Q:1/4=109] d2 B2 ^A2 | B4 z2 | z6 | z6 | z6 | z6 | z6 |[Q:1/4=100] z6[Q:1/4=95] | %74
w: ei- ni- get|sind.“|||||||
[Q:1/4=90] z6[Q:1/4=85] |[Q:1/4=80] z6[Q:1/4=77] |[Q:1/4=75] z6[Q:1/4=72] |[Q:1/4=70] z6 || %78
w: ||||
[K:B][M:6/8]"^Ziemlich langsam"[Q:3/8=40] z2 z F2 F | G2 F F2 z | B3 F2 E | D2 z z2 z | F3 F2 F | %83
w: Spricht das|Mäg- de- lein,|Mäg- de- lein|spricht:|„Un- se- re|
 =A3 A2 A |{=AB} c3 B2 =A | G2 z z2 z | B3- B =A G | %87
w: Lie- be, sie|tren- net sich|nicht!|Fest _ ist der|
"^un poco animato e cresc."[Q:1/4=63] B3[Q:1/4=66] z G G | %88
w: Stahl und das|
"^(cresc.)"[Q:1/4=69] B3-[Q:1/4=72] B ^A G |[Q:1/4=74] B3[Q:1/4=76] z2 z |[Q:1/4=78] c3 B2 A | %91
w: Ei- * sen gar|sehr,|un\-- se- re|
 e3 c2 A | (=d2 B) G2 ^E | F3 z2 z | z6 |[Q:1/4=73] z6[Q:1/4=69] |[Q:1/4=66] z6[Q:1/4=62] | %97
w: Lie- be ist|fe- * ster noch|mehr.||||
[Q:1/4=58] z6[Q:1/4=55] | F3 E2 C | (F3 E2) C | B3 A2 A | B2 z z2 z | F3 F2 F | =A3 A2 A | %104
w: |Ei- sen und|Stahl,  _ man|schmie- det sie|um,|un- se- re|Lie- be, wer|
{=AB} c3 B2 =A | G2 z z2 z | B3- B =A G | %107
w: wan- delt sie|um?|Ei- * sen und|
"^un  poco  animato  e  cresc."[Q:1/4=58]"_cresc." B3[Q:1/4=61] z2 G | %108
w: Stahl, sie|
[Q:1/4=63] B3-[Q:1/4=65] B ^A G |[Q:1/4=67] B3[Q:1/4=69] z2 z |[Q:1/4=71] c3[Q:1/4=72] B2 A | %111
w: kön- * nen zer-|gehn,|un- se- re|
[Q:1/4=73] e3 c2 z |[Q:1/4=74] f3 d2 B | e3 c2 G | c2 B e3- | e3 d2 c | B2[Q:1/4=74] z z2 z | %117
w: Lie- be,|un- se- re|Lie- be muss|e- wig,  e-|* wig be-|stehn!“|
 z6[Q:1/4=70] |[Q:1/4=65] z6[Q:1/4=60] |[Q:1/4=55] z6[Q:1/4=50][Q:1/4=45] | !fermata!z6 |] %121
w: ||||
V:2
!p! z6 | z6 | z6 | z6 |[I:staff +1] ([D,F,B,]4 [F,B,]2 |[I:staff -1] [B,DF]4 [FBd]2) | %6
 ([EAc]4 [DFB]2 | [^A,CF]4) ([FBd]2 | [E=Ac]4 [DFB]2 | [B,EG]4 [A,DF]2) | (=F2 E4) | %11
 ([A,-D]2!<(! [A,CE]3 [A,D=F])!<)! |!>(! ([^G,D=F]4 [A,CE]2)!>)! | ([A,-D]2 [A,CE]3 [A,D=F]) | %14
!<(! ([^G,D=F]4 [A,CE]2) | ([^C^FA]2 [B,^E^G]3 [A,CF]) | [C^E^G]4 [Cc]2!<)! | %17
!>(! ([C=E^A]4 [B,DB]2 | [=CF=A]4 [B,EG]2 | [B,=DF]4 [^A,CF]2)!>)! | %20
!p! z[I:staff +1] ([B,,D,]F,B,)[I:staff -1] z[I:staff +1] [F,B,] | %21
[I:staff -1] z[I:staff +1] ([D,F,]A,D)[I:staff -1] z[I:staff +1] [F,A,] | %22
[I:staff -1] z[I:staff +1] ([E,A,]CE)[I:staff -1] z[I:staff +1] [F,D] | %23
[I:staff -1] z[I:staff +1] ([B,,E,]G,B,)[I:staff -1] z[I:staff +1] [C,F,^A,] | ([D,F,B,]4 [F,B,]2 | %25
[I:staff -1] [B,DF]4 [FBd]2) | ([EAc]4 [DFB]2) | [^A,CF]4 ([FBd]2 | [E=Ac]4 [DFB]2 | %29
 [B,EG]4 [A,DF]2) | (=F2 E4) | ([A,-D]2!<(! [A,CE]3 [A,D=F])!<)! |!>(! ([^G,D=F]4 [A,CE]2)!>)! | %33
 ([A,-D]2 [A,CE]3 [A,D=F]) | ([^G,D=F]4 [A,CE]2) | [C^FA]2 [B,^E^G]3 [A,CF] | [C^E^G]4 [Cc]2 | %37
 [C=E^A]4!<(! [B,DB]2 | [=CF=A]4 [B,EG]2 | [B,=DF]4 [^A,CF]2!<)! | %40
!mf! z[I:staff +1] ([B,,D,]F,B,)[I:staff -1] z[I:staff +1] [F,B,] | %41
[I:staff -1] z[I:staff +1] ([D,F,]A,D)[I:staff -1] z[I:staff +1] [F,A,] | %42
[I:staff -1] z[I:staff +1] ([E,A,]CE)[I:staff -1] z!<(![I:staff +1] [F,D] | %43
[I:staff -1] z[I:staff +1] ([B,,E,]G,B,)[I:staff -1] z[I:staff +1] [C,F,^A,]!<)! | %44
!f![I:staff -1] (3z (FB (3fFB (3fFB) | (3z (Fc (3fFc (3fFc) | (3z (FB (3fFB (3fFB) | %47
 (3z (Fc (3fFc (3fFc) | (3(fFd (3eEc (3dDB) | (3(cCA (3cCE (3BB,D) | (3(AA,C (3FA,C (3^GB,C) | %51
!<(! (3(FF,C (3cCF!<)! (3fFc) |!f! (3(fFB (3fFB (3fFB) | (3(fFc (3fFc (3fFc) | %54
 (3(fFB (3fFB (3fFB) | (3(fFc (3fFc (3fFc) | (3(fFd (3eEc (3dDB) | (3(cCA (3cCE (3BB,D) | %58
!<(! (3(AA,C (3FA,C (3^GB,C) | (3(FF,C (3cCF (3fFc)!<)! |!f! (3(bBf (3bBe (3bBc | %61
"_cresc." (3bBd (3bBd (3bBd) | (3(bBg (3bBe (3bBc | (3bBd (3bBd (3bBd) | (3(bBd!<(! (3aAc (3gGB | %65
 (3fFA (3dDA!<)!!f! (3gGB) | (3(fFB (3fFd (3fFc) | (3(bBf (3bBe (3bBc | (3bBd (3bBd (3bBd) | %69
 (3(bBg (3bBe (3bBc | (3bBd (3bBd (3bBd) | (3(bBg (3bBe (3bBc | (3bBe (3bBc (3fFc) | %73
"_dim." (3(fFA (3dDA (3dDF | (3BB,C (3BB,C (3BB,D | (3BB,D!>(! (3BB,C (3BB,C) | %76
 (3(BB,C (3FB,C (3FB,C) | (3(F^A,C (3FA,C (3FF,C)!>)! ||[K:B][M:6/8]!pp! F6 | F6 | F6 | F6 | F6 | %83
 F6 | F3- F2 B | ([GB][F=A][GB]) B,3 | ([GB][F=A][GB]) B,3 |"_cresc." ([GB][F=A][GB]) B,3 | %88
 ([GB][F^A][GB]) B,3 | ([GB][F^A][GB]) B,3 | ([^Ac][^^G^B][Ac]) F3 | ([ce][^Bd][ce]) A3 | %92
 g3 [^EB]3 | f3"_dim." (=ede) | [Ac]3 (A^^GA) | ED"^un  poco  ritard."E DED | EDE DED | %97
 EDE DE[I:staff +1]F, |!p![I:staff -1] F3- F2 F- | F3- F2 F- | F3- F2 F- | F3- F2 F- | F3- F2 F- | %103
 F3- F2 F- | F3- F2 B | ([GB][F=A][GB]) B,3 | ([GB][F=A][GB]) B,3 | %107
"_un  poco  animato  e  cresc." ([GB][F=A][GB]) B,3 | ([GB][F^A][GB]) B,3 | ([GB][F^A][GB]) B,3 | %110
 ([^Ac][^^G^B][Ac])!<(! F3 | ([ce][^Bd][ce])!<)! A3 | ([df]F)([Bd]D)([GB]B,) | %113
 ([ce]E)([Gc]C)([EG]G,) | ([^^Fc]C)([GB]B,)([GBe]E) | ([Beg]G[Beg])([Adf]F[Ace]) | %116
 ([db]B)([df]F)([Bd]D) | ([eg]G)([ce]E)([EG]G,) |"_ritard.  molto" ([^^Fc]C[GB]B,[EG]B,) | %119
!>(! (G2 F2 E2)!>)! |!p! !fermata![B,D]6 |] %121
V:3
 z ([B,,D,]F,B,) z [F,B,] | z ([D,F,]A,D) z [F,A,] | z ([E,A,]CE) z [F,D] | %3
 z ([B,,E,]G,B,) z [C,F,^A,] | z (B,,,D,,F,,) z B,, | z (B,,,D,,F,,) z B,, | z (C,,E,,A,,) z D,, | %7
 z (F,,^A,,C,) z B,,, | z (C,,E,,=A,,) z D,, | z (E,,G,,B,,) z A,, | z (A,,,D,,A,,) z A,, | %11
 z (D,,=F,,A,,) z D, | z (A,,,D,,A,,) z A,, | z (D,,=F,,A,,) z D, | z (A,,,D,,A,,) z C, | %15
 z (^F,,A,,C,) z F, | z (C,,^G,,C,) z C, | z (F,,C,F,) z =G,, | z (^D,,A,,^D,) z E,, | %19
 z (F,,,B,,,F,,) z F,, | (B,,,4 D,,2 | F,,4 D,2) | (C,2 A,,2 B,,2 | G,,2 E,,2 F,,2) | %24
 z (B,,,D,,F,,) z B,, | z (B,,,D,,F,,) z B,, | z (C,,E,,A,,) z D,, | z (F,,^A,,C,) z B,,, | %28
 z (C,,E,,=A,,) z D,, | z (E,,G,,B,,) z A,, | z (A,,,D,,A,,) z A,, | z (D,,=F,,A,,) z D, | %32
 z (A,,,D,,A,,) z A,, | z (D,,=F,,A,,) z D, | z (A,,,D,,A,,) z C, | z (^F,,A,,C,) z F, | %36
 z (C,,^G,,C,) z C, | z (F,,C,F,) z =G,, | z (^D,,A,,^D,) z E,, | z (F,,,B,,,F,,) z F,, | %40
 (B,,,4 D,,2 | F,,4 D,2) | (C,2 A,,2 B,,2 | G,,2 E,,2 F,,2) | B,,,2 [D,B,]3 [D,B,] | %45
 [F,C]2 [F,,,F,,]3 [F,,,F,,] | [B,,,B,,]2 [D,B,]3 [D,B,] | [F,C]2 [F,,,F,,]3 [F,,,F,,] | %48
 [B,,,B,,]2 [C,,C,]2 [D,,D,]2 | [E,,E,]2 [A,,,A,,]2 [B,,,B,,]2 | [C,,C,]4 [C,,,C,,]2 | %51
 [F,,,F,,]4 z2 | B,,,2 [D,B,]3 [D,B,] | [F,C]2 [F,,,F,,]3 [F,,,F,,] | [B,,,B,,]2 [D,B,]3 [D,B,] | %55
 [F,C]2 [F,,,F,,]3 [F,,,F,,] | [B,,,B,,]2 [C,,C,]2 [D,,D,]2 | [E,,E,]2 [A,,,A,,]2 [B,,,B,,]2 | %58
 [C,,C,]4 [C,,,C,,]2 | [F,,,F,,]4 z2 | [B,,,B,,]2 [G,E]3 [G,E] | [B,F]2 [B,,,B,,]3 [B,,,B,,] | %62
 [E,,E,]2 [G,E]3 [G,E] | [B,F]2 [B,,,B,,]3 [B,,,B,,] | [G,,,G,,]2 [A,,,A,,]2 [B,,,B,,]>[C,,C,] | %65
 [D,,D,]>[E,,E,] [F,,F,]2 [C,,C,]2 | [D,,D,]>[E,,E,] [F,,F,]2 [F,,,F,,]2 | %67
!f! [B,,,B,,]2 [G,E]3 [G,E] | [B,F]2 [B,,,B,,]3 [B,,,B,,] | [E,,E,] ([G,E][B,F][EG][B,F][G,E] | %70
 [B,F]) ([B,,,B,,][C,,C,][D,,D,][C,,C,][B,,,B,,]) | [E,,E,] ([G,E][B,F][EG][B,F][G,E] | %72
 [F,D][G,E][F,D][E,C][D,B,][E,C] | [D,B,][C,A,][B,,G,][C,A,][B,,G,][A,,F,]) | ([G,,E,]4 [F,,D,]2- | %75
 [F,,D,]2 [^E,,C,]4) | [F,,C,]6 | [F,,C,]6 ||[K:B][M:6/8] ([B,D][F,C][B,D] [F,C]2) (F, | %79
 [B,D][F,C][B,D] [F,C]2) (F, | [B,D][F,C][B,D] [F,C]2) (F, | [B,D][F,C][B,D] [F,C]2) (F, | %82
 [B,D][F,C][B,D] [F,C]2) (F, | [B,D][F,C][B,D] [F,C]2) (F, | [B,D][F,C][B,D] [D,B,]2) x | %85
 [E,,,E,,]z[E,,,E,,] ([E,G,][D,F,][E,G,]) | [E,,,E,,]z[E,,,E,,] ([E,G,][D,F,][E,G,]) | %87
 [E,,,E,,]z[E,,,E,,] ([E,G,][D,F,][E,G,]) | [E,,,E,,]z[E,,,E,,] ([^E,G,][D,F,][E,G,]) | %89
 [E,,,E,,]z[E,,,E,,] ([^E,G,][D,F,][E,G,]) | [F,,,F,,]z[F,,,F,,] [F,,F,]z[F,,F,] | %91
 [F,,,F,,]z[F,,,F,,] [F,,F,]z[F,,F,] |!mf! [F,,,F,,]z[F,,,F,,] [F,,F,]z[F,,F,] | %93
 [F,,,F,,]z[F,,,F,,] [F,,F,] z z | [F,,,F,,]z[F,,,F,,] [F,,F,] z z | (A,3 =A,3) | (^A,3 =A,3) | %97
 ^A,3- A,2 (C | [B,D][F,C][B,D] [F,C]2) F, | ([B,D][F,C][B,D] [F,C]2) F, | %100
 ([B,D][F,C][B,D] [F,C]2) F, | ([B,D][F,C][B,D] [F,C]2) F, | ([B,D][F,C][B,D] [F,C]2) F, | %103
 ([B,D][F,C][B,D] [F,C]2) (F, | [B,D][F,C][B,D] [D,B,]2) x | %105
!p! [E,,,E,,]z[E,,,E,,] ([E,G,][D,F,][E,G,]) | [E,,,E,,]z[E,,,E,,] ([E,G,][D,F,][E,G,]) | %107
 [E,,,E,,]z[E,,,E,,] (([E,G,][D,F,][E,G,])) | [E,,,E,,]z[E,,,E,,] ([^E,G,][D,F,][E,G,]) | %109
 [E,,,E,,]z[E,,,E,,] ([^E,G,][D,F,][E,G,]) | [F,,,F,,]z[F,,,F,,] [F,,F,]z[F,,F,] | %111
 [F,,,F,,]z[F,,,F,,] [F,,F,]z[F,,F,] |!f! B,,,2 D,,-D,, [G,,,G,,]2 | C,,2 E,,-E,, [A,,,A,,]2 | %114
 (D,,2 G,,) [C,,C,]3 | [F,,,F,,]3 ([A,D]2 [CE]) |!f! [B,,,B,,]2 [D,,D,]-[D,,D,] G,,2 | %117
 [C,,C,]2 [E,,E,]-[E,,E,] A,,2 | [D,,D,]2 G,,-G,, [C,,C,]2 | F,,3- [F,,,F,,]3 | %120
 !fermata![B,,,F,,]6 |] %121
V:4
 (B,,,4 D,,2 | F,,4 D,2) | (C,2 A,,2 B,,2 | G,,2 E,,2 F,,2) | x6 | x6 | x6 | x6 | x6 | x6 | x6 | %11
 x6 | x6 | x6 | x6 | x6 | x6 | x6 | x6 | x6 | x6 | x6 | x6 | x6 | x6 | x6 | x6 | x6 | x6 | x6 | %30
 x6 | x6 | x6 | x6 | x6 | x6 | x6 | x6 | x6 | x6 | x6 | x6 | x6 | x6 | x6 | x6 | x6 | x6 | x6 | %49
 x6 | x6 | x6 | x6 | x6 | x6 | x6 | x6 | x6 | x6 | x6 | x6 | x6 | x6 | x6 | x6 | x6 | x6 | x6 | %68
 x6 | x6 | x6 | x6 | x6 | x6 | x6 | x6 | x6 | x6 ||[K:B][M:6/8] B,,,zB,,, F,, z z | %79
 B,,,zB,,, F,, z z | B,,,zB,,, F,, z z | B,,,zB,,, F,, z z | B,,,zB,,, F,, z z | %83
 B,,,zB,,, F,, z z | B,,,zB,,, B,, z z | x3 [E,,B,,] z z | x3 [E,,B,,]z[E,,B,,] | %87
 x3 [E,,B,,]z[E,,B,,] | x3 [C,,C,]z[C,,C,] | x3 [C,,C,]z[C,,C,] | x6 | x6 | x6 | x6 | x6 | %95
 [F,,,F,,]z[F,,,F,,] [F,,^B,,] z z | [F,,,F,,]z[F,,,F,,] [F,,^B,,] z z | [F,,C,] z z [F,,F,] z z | %98
 [B,,,B,,]z[B,,,B,,] [F,,F,] z z | [B,,,B,,]z[B,,,B,,] [F,,F,] z z | %100
 [B,,,B,,]z[B,,,B,,] [F,,F,] z z | [B,,,B,,]z[B,,,B,,] [F,,F,] z z | %102
 [B,,,B,,]z[B,,,B,,] [F,,F,] z z | [B,,,B,,]z[B,,,B,,] [F,,F,] z z | %104
 [B,,,B,,]z[B,,,B,,] [B,,F,] z z | x3 [E,,B,,] z z | x3 [E,,B,,]z[E,,B,,] | x3 [E,,B,,]z[E,,B,,] | %108
 x3 [C,,C,]z[C,,C,] | x3 [C,,C,]z[C,,C,] | x6 | x6 | x6 | x6 | x6 | x3 F,3 | x6 | x6 | x6 | x6 | %120
 x6 |] %121
V:5
 x6 | x6 | x6 | x6 | x4 D2 | x6 | x6 | x6 | x6 | x6 | [A,-D]4 [A,C]2 | x6 | x6 | x6 | x6 | x6 | %16
 x6 | x6 | x6 | x6 | x6 | x6 | x6 | x6 | x4 D2 | x6 | x6 | x6 | x6 | x6 | [A,-D]4 [A,C]2 | x6 | %32
 x6 | x6 | x6 | x6 | x6 | x6 | x6 | x6 | x6 | x6 | x6 | x6 | x6 | x6 | x6 | x6 | x6 | x6 | x6 | %51
 x6 | x6 | x6 | x6 | x6 | x6 | x6 | x6 | x6 | x6 | x6 | x6 | x6 | x6 | x6 | x6 | x6 | x6 | x6 | %70
 x6 | x6 | x6 | x6 | x6 | x6 | x6 | x6 ||[K:B][M:6/8] x6 | x6 | x6 | x6 | x6 | x6 | x5 B, | E3 x3 | %86
 E3 x3 | E3 x3 | ^E3 x3 | ^E3 x3 | =E3 ([CE][^B,D][CE]) | F3 ([CE][^B,D][CE]) | %92
 ([=B=d][Ac][Bd]) (=DCD) | ([Ac][^^G^B][Ac]) [FA]3 | (EDE) [CE]3 | F6- | F6- | F3- F2 F- | x6 | %99
 x6 | x6 | x6 | x6 | x6 | x5 B, | E2 E x3 | E2 E x3 | E2 E x3 | ^E2 E x3 | ^E2 E x3 | %110
 =E2 E ([CE][^B,D][CE]) | F2 F ([CE][^B,D][CE]) | x6 | x6 | x6 | x6 | x6 | x6 | x6 | %119
 E[I:staff +1]A,[I:staff -1]D[I:staff +1]F,[I:staff -1]C[I:staff +1]F, | F,6 |] %121

